lib/typescript/assets/images/icons/cog.svg

<svg xmlns="http://www.w3.org/2000/svg" width="24" height="24" viewBox="0 0 24 24">
  <path d="M17.1870269,5.90925826 L18.670875,5.60561111 C19.3034125,5.47617184 19.9478108,5.76601219 20.2706336,6.32515769 L21.0498744,7.67484231 C21.3726972,8.23398781 21.3015072,8.9369733 20.8731407,9.42004724 L19.869232,10.552167 C19.955984,11.026532 20,11.5105366 20,12 C20,12.4894634 19.955984,12.973468 19.869232,13.447833 L20.8731407,14.5799528 C21.3015072,15.0630267 21.3726972,15.7660122 21.0498744,16.3251577 L20.2706336,17.6748423 C19.9478108,18.2339878 19.3034125,18.5238282 18.670875,18.3943889 L17.1870269,18.0907417 C16.4472202,18.7213719 15.5983246,19.2134101 14.6804637,19.5397477 L14.2022657,20.9743416 C13.9980947,21.5868549 13.4248864,22 12.7792408,22 L11.2207592,22 C10.5751136,22 10.0019053,21.5868549 9.79773427,20.9743416 L9.31953628,19.5397477 C8.40167539,19.2134101 7.55277982,18.7213719 6.81297313,18.0907417 L5.32912501,18.3943889 C4.69658748,18.5238282 4.05218916,18.2339878 3.72936635,17.6748423 L2.95012557,16.3251577 C2.62730277,15.7660122 2.69849282,15.0630267 3.12685929,14.5799528 L4.13076802,13.447833 C4.04401605,12.973468 4,12.4894634 4,12 C4,11.5105366 4.04401605,11.026532 4.13076802,10.552167 L3.12685929,9.42004724 C2.69849282,8.9369733 2.62730277,8.23398781 2.95012557,7.67484231 L3.72936635,6.32515769 C4.05218916,5.76601219 4.69658748,5.47617184 5.32912501,5.60561111 L6.81297313,5.90925826 C7.55277982,5.27862815 8.40167539,4.78658986 9.31953628,4.46025233 L9.79773427,3.02565835 C10.0019053,2.41314514 10.5751136,2 11.2207592,2 L12.7792408,2 C13.4248864,2 13.9980947,2.41314514 14.2022657,3.02565835 L14.6804637,4.46025233 C15.5983246,4.78658986 16.4472202,5.27862815 17.1870269,5.90925826 Z M14.1326282,5.33065677 C13.9806142,5.28209151 13.8609139,5.16388061 13.8104493,5.0124866 L13.2535824,3.34188612 C13.1855254,3.13771505 12.994456,3 12.7792408,3 L11.2207592,3 C11.005544,3 10.8144746,3.13771505 10.7464176,3.34188612 L10.1895507,5.0124866 C10.1390861,5.16388061 10.0193858,5.28209151 9.86737183,5.33065677 C8.91148077,5.63604385 8.03422671,6.14493515 7.29282481,6.8189531 C7.17476231,6.92628523 7.01256297,6.97082432 6.8562438,6.93883595 L5.12864464,6.58530883 C4.9177988,6.54216241 4.70299936,6.63877585 4.59539176,6.82515769 L3.81615098,8.17484231 C3.70854337,8.36122415 3.73227339,8.59555264 3.87506221,8.75657729 L5.04377846,10.0745524 C5.1495098,10.1937869 5.1920708,10.3562805 5.15836615,10.5120367 C5.05341889,10.9970196 5,11.4948846 5,12 C5,12.5051154 5.05341889,13.0029804 5.15836615,13.4879633 C5.1920708,13.6437195 5.1495098,13.8062131 5.04377846,13.9254476 L3.87506221,15.2434227 C3.73227339,15.4044474 3.70854337,15.6387759 3.81615098,15.8251577 L4.59539176,17.1748423 C4.70299936,17.3612241 4.9177988,17.4578376 5.12864464,17.4146912 L6.8562438,17.061164 C7.01256297,17.0291757 7.17476231,17.0737148 7.29282481,17.1810469 C8.03422671,17.8550648 8.91148077,18.3639561 9.86737183,18.6693432 C10.0193858,18.7179085 10.1390861,18.8361194 10.1895507,18.9875134 L10.7464176,20.6581139 C10.8144746,20.862285 11.005544,21 11.2207592,21 L12.7792408,21 C12.994456,21 13.1855254,20.862285 13.2535824,20.6581139 L13.8104493,18.9875134 C13.8609139,18.8361194 13.9806142,18.7179085 14.1326282,18.6693432 C15.0885192,18.3639561 15.9657733,17.8550648 16.7071752,17.1810469 C16.8252377,17.0737148 16.987437,17.0291757 17.1437562,17.061164 L18.8713554,17.4146912 C19.0822012,17.4578376 19.2970006,17.3612241 19.4046082,17.1748423 L20.183849,15.8251577 C20.2914566,15.6387759 20.2677266,15.4044474 20.1249378,15.2434227 L18.9562215,13.9254476 C18.8504902,13.8062131 18.8079292,13.6437195 18.8416339,13.4879633 C18.9465811,13.0029804 19,12.5051154 19,12 C19,11.4948846 18.9465811,10.9970196 18.8416339,10.5120367 C18.8079292,10.3562805 18.8504902,10.1937869 18.9562215,10.0745524 L20.1249378,8.75657729 C20.2677266,8.59555264 20.2914566,8.36122415 20.183849,8.17484231 L19.4046082,6.82515769 C19.2970006,6.63877585 19.0822012,6.54216241 18.8713554,6.58530883 L17.1437562,6.93883595 C16.987437,6.97082432 16.8252377,6.92628523 16.7071752,6.8189531 C15.9657733,6.14493515 15.0885192,5.63604385 14.1326282,5.33065677 Z M12,16 C9.790861,16 8,14.209139 8,12 C8,9.790861 9.790861,8 12,8 C14.209139,8 16,9.790861 16,12 C16,14.209139 14.209139,16 12,16 Z M12,15 C13.6568542,15 15,13.6568542 15,12 C15,10.3431458 13.6568542,9 12,9 C10.3431458,9 9,10.3431458 9,12 C9,13.6568542 10.3431458,15 12,15 Z"/>
</svg>

<svg xmlns="http://www.w3.org/2000/svg" width="24" height="24"><path d="m17.187 5.91 1.484-.304a1.5 1.5 0 0 1 1.6.72l.779 1.349a1.5 1.5 0 0 1-.177 1.745l-1.004 1.132a8.043 8.043 0 0 1 0 2.896l1.004 1.132a1.5 1.5 0 0 1 .177 1.745l-.78 1.35a1.5 1.5 0 0 1-1.6.72l-1.483-.304a7.992 7.992 0 0 1-2.507 1.449l-.478 1.434A1.5 1.5 0 0 1 12.78 22h-1.558a1.5 1.5 0 0 1-1.423-1.026L9.32 19.54a7.992 7.992 0 0 1-2.507-1.45l-1.484.304a1.5 1.5 0 0 1-1.6-.72l-.779-1.349a1.5 1.5 0 0 1 .177-1.745l1.004-1.132a8.043 8.043 0 0 1 0-2.896L3.127 9.42a1.5 1.5 0 0 1-.177-1.745l.78-1.35a1.5 1.5 0 0 1 1.6-.72l1.483.304A7.992 7.992 0 0 1 9.32 4.46l.478-1.434A1.5 1.5 0 0 1 11.22 2h1.558a1.5 1.5 0 0 1 1.423 1.026l.478 1.434a7.992 7.992 0 0 1 2.507 1.45zm-3.054-.58a.5.5 0 0 1-.323-.318l-.556-1.67A.5.5 0 0 0 12.779 3h-1.558a.5.5 0 0 0-.475.342l-.556 1.67a.5.5 0 0 1-.323.319 6.992 6.992 0 0 0-2.574 1.488.5.5 0 0 1-.437.12L5.13 6.585a.5.5 0 0 0-.534.24l-.779 1.35a.5.5 0 0 0 .06.582l1.168 1.318a.5.5 0 0 1 .114.437 7.029 7.029 0 0 0 0 2.976.5.5 0 0 1-.114.437l-1.169 1.318a.5.5 0 0 0-.059.582l.78 1.35a.5.5 0 0 0 .533.24l1.727-.354a.5.5 0 0 1 .437.12 6.992 6.992 0 0 0 2.574 1.488.5.5 0 0 1 .323.319l.556 1.67a.5.5 0 0 0 .475.342h1.558a.5.5 0 0 0 .475-.342l.556-1.67a.5.5 0 0 1 .323-.319 6.992 6.992 0 0 0 2.574-1.488.5.5 0 0 1 .437-.12l1.727.354a.5.5 0 0 0 .534-.24l.779-1.35a.5.5 0 0 0-.06-.582l-1.168-1.318a.5.5 0 0 1-.114-.437 7.029 7.029 0 0 0 0-2.976.5.5 0 0 1 .114-.437l1.169-1.318a.5.5 0 0 0 .059-.582l-.78-1.35a.5.5 0 0 0-.533-.24l-1.727.354a.5.5 0 0 1-.437-.12 6.992 6.992 0 0 0-2.574-1.488zM12 16a4 4 0 1 1 0-8 4 4 0 0 1 0 8zm0-1a3 3 0 1 0 0-6 3 3 0 0 0 0 6z"/></svg>
